evals/fixtures/luts/portra_like.cube
TITLE "synthetic film"
LUT_3D_SIZE 5
0.051500 0.050000 0.048500
0.207619 0.050000 0.048500
0.410167 0.050000 0.048500
0.634946 0.050000 0.048500
0.875500 0.050000 0.048500
0.051500 0.201572 0.048500
0.207619 0.201572 0.048500
0.410167 0.201572 0.048500
0.634946 0.201572 0.048500
0.875500 0.201572 0.048500
0.051500 0.398220 0.048500
0.207619 0.398220 0.048500
0.410167 0.398220 0.048500
0.634946 0.398220 0.048500
0.875500 0.398220 0.048500
0.051500 0.616453 0.048500
0.207619 0.616453 0.048500
0.410167 0.616453 0.048500
0.634946 0.616453 0.048500
0.875500 0.616453 0.048500
0.051500 0.850000 0.048500
0.207619 0.850000 0.048500
0.410167 0.850000 0.048500
0.634946 0.850000 0.048500
0.875500 0.850000 0.048500
0.051500 0.050000 0.195525
0.207619 0.050000 0.195525
0.410167 0.050000 0.195525
0.634946 0.050000 0.195525
0.875500 0.050000 0.195525
0.051500 0.201572 0.195525
0.207619 0.201572 0.195525
0.410167 0.201572 0.195525
0.634946 0.201572 0.195525
0.875500 0.201572 0.195525
0.051500 0.398220 0.195525
0.207619 0.398220 0.195525
0.410167 0.398220 0.195525
0.634946 0.398220 0.195525
0.875500 0.398220 0.195525
0.051500 0.616453 0.195525
0.207619 0.616453 0.195525
0.410167 0.616453 0.195525
0.634946 0.616453 0.195525
0.875500 0.616453 0.195525
0.051500 0.850000 0.195525
0.207619 0.850000 0.195525
0.410167 0.850000 0.195525
0.634946 0.850000 0.195525
0.875500 0.850000 0.195525
0.051500 0.050000 0.386274
0.207619 0.050000 0.386274
0.410167 0.050000 0.386274
0.634946 0.050000 0.386274
0.875500 0.050000 0.386274
0.051500 0.201572 0.386274
0.207619 0.201572 0.386274
0.410167 0.201572 0.386274
0.634946 0.201572 0.386274
0.875500 0.201572 0.386274
0.051500 0.398220 0.386274
0.207619 0.398220 0.386274
0.410167 0.398220 0.386274
0.634946 0.398220 0.386274
0.875500 0.398220 0.386274
0.051500 0.616453 0.386274
0.207619 0.616453 0.386274
0.410167 0.616453 0.386274
0.634946 0.616453 0.386274
0.875500 0.616453 0.386274
0.051500 0.850000 0.386274
0.207619 0.850000 0.386274
0.410167 0.850000 0.386274
0.634946 0.850000 0.386274
0.875500 0.850000 0.386274
0.051500 0.050000 0.597959
0.207619 0.050000 0.597959
0.410167 0.050000 0.597959
0.634946 0.050000 0.597959
0.875500 0.050000 0.597959
0.051500 0.201572 0.597959
0.207619 0.201572 0.597959
0.410167 0.201572 0.597959
0.634946 0.201572 0.597959
0.875500 0.201572 0.597959
0.051500 0.398220 0.597959
0.207619 0.398220 0.597959
0.410167 0.398220 0.597959
0.634946 0.398220 0.597959
0.875500 0.398220 0.597959
0.051500 0.616453 0.597959
0.207619 0.616453 0.597959
0.410167 0.616453 0.597959
0.634946 0.616453 0.597959
0.875500 0.616453 0.597959
0.051500 0.850000 0.597959
0.207619 0.850000 0.597959
0.410167 0.850000 0.597959
0.634946 0.850000 0.597959
0.875500 0.850000 0.597959
0.051500 0.050000 0.824500
0.207619 0.050000 0.824500
0.410167 0.050000 0.824500
0.634946 0.050000 0.824500
0.875500 0.050000 0.824500
0.051500 0.201572 0.824500
0.207619 0.201572 0.824500
0.410167 0.201572 0.824500
0.634946 0.201572 0.824500
0.875500 0.201572 0.824500
0.051500 0.398220 0.824500
0.207619 0.398220 0.824500
0.410167 0.398220 0.824500
0.634946 0.398220 0.824500
0.875500 0.398220 0.824500
0.051500 0.616453 0.824500
0.207619 0.616453 0.824500
0.410167 0.616453 0.824500
0.634946 0.616453 0.824500
0.875500 0.616453 0.824500
0.051500 0.850000 0.824500
0.207619 0.850000 0.824500
0.410167 0.850000 0.824500
0.634946 0.850000 0.824500
0.875500 0.850000 0.824500
