evals/fixtures/luts/portra_like.cube
TITLE "synthetic film"
LUT_3D_SIZE 33
0.051500 0.050000 0.048500
0.064375 0.050000 0.048500
0.081079 0.050000 0.048500
0.099616 0.050000 0.048500
0.119455 0.050000 0.048500
0.140320 0.050000 0.048500
0.162042 0.050000 0.048500
0.184504 0.050000 0.048500
0.207619 0.050000 0.048500
0.231320 0.050000 0.048500
0.255555 0.050000 0.048500
0.280280 0.050000 0.048500
0.305460 0.050000 0.048500
0.331063 0.050000 0.048500
0.357063 0.050000 0.048500
0.383438 0.050000 0.048500
0.410167 0.050000 0.048500
0.437232 0.050000 0.048500
0.464618 0.050000 0.048500
0.492310 0.050000 0.048500
0.520295 0.050000 0.048500
0.548562 0.050000 0.048500
0.577099 0.050000 0.048500
0.605897 0.050000 0.048500
0.634946 0.050000 0.048500
0.664239 0.050000 0.048500
0.693766 0.050000 0.048500
0.723522 0.050000 0.048500
0.753500 0.050000 0.048500
0.783692 0.050000 0.048500
0.814093 0.050000 0.048500
0.844697 0.050000 0.048500
0.875500 0.050000 0.048500
0.051500 0.062500 0.048500
0.064375 0.062500 0.048500
0.081079 0.062500 0.048500
0.099616 0.062500 0.048500
0.119455 0.062500 0.048500
0.140320 0.062500 0.048500
0.162042 0.062500 0.048500
0.184504 0.062500 0.048500
0.207619 0.062500 0.048500
0.231320 0.062500 0.048500
0.255555 0.062500 0.048500
0.280280 0.062500 0.048500
0.305460 0.062500 0.048500
0.331063 0.062500 0.048500
0.357063 0.062500 0.048500
0.383438 0.062500 0.048500
0.410167 0.062500 0.048500
0.437232 0.062500 0.048500
0.464618 0.062500 0.048500
0.492310 0.062500 0.048500
0.520295 0.062500 0.048500
0.548562 0.062500 0.048500
0.577099 0.062500 0.048500
0.605897 0.062500 0.048500
0.634946 0.062500 0.048500
0.664239 0.062500 0.048500
0.693766 0.062500 0.048500
0.723522 0.062500 0.048500
0.753500 0.062500 0.048500
0.783692 0.062500 0.048500
0.814093 0.062500 0.048500
0.844697 0.062500 0.048500
0.875500 0.062500 0.048500
0.051500 0.078717 0.048500
0.064375 0.078717 0.048500
0.081079 0.078717 0.048500
0.099616 0.078717 0.048500
0.119455 0.078717 0.048500
0.140320 0.078717 0.048500
0.162042 0.078717 0.048500
0.184504 0.078717 0.048500
0.207619 0.078717 0.048500
0.231320 0.078717 0.048500
0.255555 0.078717 0.048500
0.280280 0.078717 0.048500
0.305460 0.078717 0.048500
0.331063 0.078717 0.048500
0.357063 0.078717 0.048500
0.383438 0.078717 0.048500
0.410167 0.078717 0.048500
0.437232 0.078717 0.048500
0.464618 0.078717 0.048500
0.492310 0.078717 0.048500
0.520295 0.078717 0.048500
0.548562 0.078717 0.048500
0.577099 0.078717 0.048500
0.605897 0.078717 0.048500
0.634946 0.078717 0.048500
0.664239 0.078717 0.048500
0.693766 0.078717 0.048500
0.723522 0.078717 0.048500
0.753500 0.078717 0.048500
0.783692 0.078717 0.048500
0.814093 0.078717 0.048500
0.844697 0.078717 0.048500
0.875500 0.078717 0.048500
0.051500 0.096715 0.048500
0.064375 0.096715 0.048500
0.081079 0.096715 0.048500
0.099616 0.096715 0.048500
0.119455 0.096715 0.048500
0.140320 0.096715 0.048500
0.162042 0.096715 0.048500
0.184504 0.096715 0.048500
0.207619 0.096715 0.048500
0.231320 0.096715 0.048500
0.255555 0.096715 0.048500
0.280280 0.096715 0.048500
0.305460 0.096715 0.048500
0.331063 0.096715 0.048500
0.357063 0.096715 0.048500
0.383438 0.096715 0.048500
0.410167 0.096715 0.048500
0.437232 0.096715 0.048500
0.464618 0.096715 0.048500
0.492310 0.096715 0.048500
0.520295 0.096715 0.048500
0.548562 0.096715 0.048500
0.577099 0.096715 0.048500
0.605897 0.096715 0.048500
0.634946 0.096715 0.048500
0.664239 0.096715 0.048500
0.693766 0.096715 0.048500
0.723522 0.096715 0.048500
0.753500 0.096715 0.048500
0.783692 0.096715 0.048500
0.814093 0.096715 0.048500
0.844697 0.096715 0.048500
0.875500 0.096715 0.048500
0.051500 0.115975 0.048500
0.064375 0.115975 0.048500
0.081079 0.115975 0.048500
0.099616 0.115975 0.048500
0.119455 0.115975 0.048500
0.140320 0.115975 0.048500
0.162042 0.115975 0.048500
0.184504 0.115975 0.048500
0.207619 0.115975 0.048500
0.231320 0.115975 0.048500
0.255555 0.115975 0.048500
0.280280 0.115975 0.048500
0.305460 0.115975 0.048500
0.331063 0.115975 0.048500
0.357063 0.115975 0.048500
0.383438 0.115975 0.048500
0.410167 0.115975 0.048500
0.437232 0.115975 0.048500
0.464618 0.115975 0.048500
0.492310 0.115975 0.048500
0.520295 0.115975 0.048500
0.548562 0.115975 0.048500
0.577099 0.115975 0.048500
0.605897 0.115975 0.048500
0.634946 0.115975 0.048500
0.664239 0.115975 0.048500
0.693766 0.115975 0.048500
0.723522 0.115975 0.048500
0.753500 0.115975 0.048500
0.783692 0.115975 0.048500
0.814093 0.115975 0.048500
0.844697 0.115975 0.048500
0.875500 0.115975 0.048500
0.051500 0.136233 0.048500
0.064375 0.136233 0.048500
0.081079 0.136233 0.048500
0.099616 0.136233 0.048500
0.119455 0.136233 0.048500
0.140320 0.136233 0.048500
0.162042 0.136233 0.048500
0.184504 0.136233 0.048500
0.207619 0.136233 0.048500
0.231320 0.136233 0.048500
0.255555 0.136233 0.048500
0.280280 0.136233 0.048500
0.305460 0.136233 0.048500
0.331063 0.136233 0.048500
0.357063 0.136233 0.048500
0.383438 0.136233 0.048500
0.410167 0.136233 0.048500
0.437232 0.136233 0.048500
0.464618 0.136233 0.048500
0.492310 0.136233 0.048500
0.520295 0.136233 0.048500
0.548562 0.136233 0.048500
0.577099 0.136233 0.048500
0.605897 0.136233 0.048500
0.634946 0.136233 0.048500
0.664239 0.136233 0.048500
0.693766 0.136233 0.048500
0.723522 0.136233 0.048500
0.753500 0.136233 0.048500
0.783692 0.136233 0.048500
0.814093 0.136233 0.048500
0.844697 0.136233 0.048500
0.875500 0.136233 0.048500
0.051500 0.157323 0.048500
0.064375 0.157323 0.048500
0.081079 0.157323 0.048500
0.099616 0.157323 0.048500
0.119455 0.157323 0.048500
0.140320 0.157323 0.048500
0.162042 0.157323 0.048500
0.184504 0.157323 0.048500
0.207619 0.157323 0.048500
0.231320 0.157323 0.048500
0.255555 0.157323 0.048500
0.280280 0.157323 0.048500
0.305460 0.157323 0.048500
0.331063 0.157323 0.048500
0.357063 0.157323 0.048500
0.383438 0.157323 0.048500
0.410167 0.157323 0.048500
0.437232 0.157323 0.048500
0.464618 0.157323 0.048500
0.492310 0.157323 0.048500
0.520295 0.157323 0.048500
0.548562 0.157323 0.048500
0.577099 0.157323 0.048500
0.605897 0.157323 0.048500
0.634946 0.157323 0.048500
0.664239 0.157323 0.048500
0.693766 0.157323 0.048500
0.723522 0.157323 0.048500
0.753500 0.157323 0.048500
0.783692 0.157323 0.048500
0.814093 0.157323 0.048500
0.844697 0.157323 0.048500
0.875500 0.157323 0.048500
0.051500 0.179130 0.048500
0.064375 0.179130 0.048500
0.081079 0.179130 0.048500
0.099616 0.179130 0.048500
0.119455 0.179130 0.048500
0.140320 0.179130 0.048500
0.162042 0.179130 0.048500
0.184504 0.179130 0.048500
0.207619 0.179130 0.048500
0.231320 0.179130 0.048500
0.255555 0.179130 0.048500
0.280280 0.179130 0.048500
0.305460 0.179130 0.048500
0.331063 0.179130 0.048500
0.357063 0.179130 0.048500
0.383438 0.179130 0.048500
0.410167 0.179130 0.048500
0.437232 0.179130 0.048500
0.464618 0.179130 0.048500
0.492310 0.179130 0.048500
0.520295 0.179130 0.048500
0.548562 0.179130 0.048500
0.577099 0.179130 0.048500
0.605897 0.179130 0.048500
0.634946 0.179130 0.048500
0.664239 0.179130 0.048500
0.693766 0.179130 0.048500
0.723522 0.179130 0.048500
0.753500 0.179130 0.048500
0.783692 0.179130 0.048500
0.814093 0.179130 0.048500
0.844697 0.179130 0.048500
0.875500 0.179130 0.048500
0.051500 0.201572 0.048500
0.064375 0.201572 0.048500
0.081079 0.201572 0.048500
0.099616 0.201572 0.048500
0.119455 0.201572 0.048500
0.140320 0.201572 0.048500
0.162042 0.201572 0.048500
0.184504 0.201572 0.048500
0.207619 0.201572 0.048500
0.231320 0.201572 0.048500
0.255555 0.201572 0.048500
0.280280 0.201572 0.048500
0.305460 0.201572 0.048500
0.331063 0.201572 0.048500
0.357063 0.201572 0.048500
0.383438 0.201572 0.048500
0.410167 0.201572 0.048500
0.437232 0.201572 0.048500
0.464618 0.201572 0.048500
0.492310 0.201572 0.048500
0.520295 0.201572 0.048500
0.548562 0.201572 0.048500
0.577099 0.201572 0.048500
0.605897 0.201572 0.048500
0.634946 0.201572 0.048500
0.664239 0.201572 0.048500
0.693766 0.201572 0.048500
0.723522 0.201572 0.048500
0.753500 0.201572 0.048500
0.783692 0.201572 0.048500
0.814093 0.201572 0.048500
0.844697 0.201572 0.048500
0.875500 0.201572 0.048500
0.051500 0.224583 0.048500
0.064375 0.224583 0.048500
0.081079 0.224583 0.048500
0.099616 0.224583 0.048500
0.119455 0.224583 0.048500
0.140320 0.224583 0.048500
0.162042 0.224583 0.048500
0.184504 0.224583 0.048500
0.207619 0.224583 0.048500
0.231320 0.224583 0.048500
0.255555 0.224583 0.048500
0.280280 0.224583 0.048500
0.305460 0.224583 0.048500
0.331063 0.224583 0.048500
0.357063 0.224583 0.048500
0.383438 0.224583 0.048500
0.410167 0.224583 0.048500
0.437232 0.224583 0.048500
0.464618 0.224583 0.048500
0.492310 0.224583 0.048500
0.520295 0.224583 0.048500
0.548562 0.224583 0.048500
0.577099 0.224583 0.048500
0.605897 0.224583 0.048500
0.634946 0.224583 0.048500
0.664239 0.224583 0.048500
0.693766 0.224583 0.048500
0.723522 0.224583 0.048500
0.753500 0.224583 0.048500
0.783692 0.224583 0.048500
0.814093 0.224583 0.048500
0.844697 0.224583 0.048500
0.875500 0.224583 0.048500
0.051500 0.248112 0.048500
0.064375 0.248112 0.048500
0.081079 0.248112 0.048500
0.099616 0.248112 0.048500
0.119455 0.248112 0.048500
0.140320 0.248112 0.048500
0.162042 0.248112 0.048500
0.184504 0.248112 0.048500
0.207619 0.248112 0.048500
0.231320 0.248112 0.048500
0.255555 0.248112 0.048500
0.280280 0.248112 0.048500
0.305460 0.248112 0.048500
0.331063 0.248112 0.048500
0.357063 0.248112 0.048500
0.383438 0.248112 0.048500
0.410167 0.248112 0.048500
0.437232 0.248112 0.048500
0.464618 0.248112 0.048500
0.492310 0.248112 0.048500
0.520295 0.248112 0.048500
0.548562 0.248112 0.048500
0.577099 0.248112 0.048500
0.605897 0.248112 0.048500
0.634946 0.248112 0.048500
0.664239 0.248112 0.048500
0.693766 0.248112 0.048500
0.723522 0.248112 0.048500
0.753500 0.248112 0.048500
0.783692 0.248112 0.048500
0.814093 0.248112 0.048500
0.844697 0.248112 0.048500
0.875500 0.248112 0.048500
0.051500 0.272117 0.048500
0.064375 0.272117 0.048500
0.081079 0.272117 0.048500
0.099616 0.272117 0.048500
0.119455 0.272117 0.048500
0.140320 0.272117 0.048500
0.162042 0.272117 0.048500
0.184504 0.272117 0.048500
0.207619 0.272117 0.048500
0.231320 0.272117 0.048500
0.255555 0.272117 0.048500
0.280280 0.272117 0.048500
0.305460 0.272117 0.048500
0.331063 0.272117 0.048500
0.357063 0.272117 0.048500
0.383438 0.272117 0.048500
0.410167 0.272117 0.048500
0.437232 0.272117 0.048500
0.464618 0.272117 0.048500
0.492310 0.272117 0.048500
0.520295 0.272117 0.048500
0.548562 0.272117 0.048500
0.577099 0.272117 0.048500
0.605897 0.272117 0.048500
0.634946 0.272117 0.048500
0.664239 0.272117 0.048500
0.693766 0.272117 0.048500
0.723522 0.272117 0.048500
0.753500 0.272117 0.048500
0.783692 0.272117 0.048500
0.814093 0.272117 0.048500
0.844697 0.272117 0.048500
0.875500 0.272117 0.048500
0.051500 0.296563 0.048500
0.064375 0.296563 0.048500
0.081079 0.296563 0.048500
0.099616 0.296563 0.048500
0.119455 0.296563 0.048500
0.140320 0.296563 0.048500
0.162042 0.296563 0.048500
0.184504 0.296563 0.048500
0.207619 0.296563 0.048500
0.231320 0.296563 0.048500
0.255555 0.296563 0.048500
0.280280 0.296563 0.048500
0.305460 0.296563 0.048500
0.331063 0.296563 0.048500
0.357063 0.296563 0.048500
0.383438 0.296563 0.048500
0.410167 0.296563 0.048500
0.437232 0.296563 0.048500
0.464618 0.296563 0.048500
0.492310 0.296563 0.048500
0.520295 0.296563 0.048500
0.548562 0.296563 0.048500
0.577099 0.296563 0.048500
0.605897 0.296563 0.048500
0.634946 0.296563 0.048500
0.664239 0.296563 0.048500
0.693766 0.296563 0.048500
0.723522 0.296563 0.048500
0.753500 0.296563 0.048500
0.783692 0.296563 0.048500
0.814093 0.296563 0.048500
0.844697 0.296563 0.048500
0.875500 0.296563 0.048500
0.051500 0.321420 0.048500
0.064375 0.321420 0.048500
0.081079 0.321420 0.048500
0.099616 0.321420 0.048500
0.119455 0.321420 0.048500
0.140320 0.321420 0.048500
0.162042 0.321420 0.048500
0.184504 0.321420 0.048500
0.207619 0.321420 0.048500
0.231320 0.321420 0.048500
0.255555 0.321420 0.048500
0.280280 0.321420 0.048500
0.305460 0.321420 0.048500
0.331063 0.321420 0.048500
0.357063 0.321420 0.048500
0.383438 0.321420 0.048500
0.410167 0.321420 0.048500
0.437232 0.321420 0.048500
0.464618 0.321420 0.048500
0.492310 0.321420 0.048500
0.520295 0.321420 0.048500
0.548562 0.321420 0.048500
0.577099 0.321420 0.048500
0.605897 0.321420 0.048500
0.634946 0.321420 0.048500
0.664239 0.321420 0.048500
0.693766 0.321420 0.048500
0.723522 0.321420 0.048500
0.753500 0.321420 0.048500
0.783692 0.321420 0.048500
0.814093 0.321420 0.048500
0.844697 0.321420 0.048500
0.875500 0.321420 0.048500
0.051500 0.346663 0.048500
0.064375 0.346663 0.048500
0.081079 0.346663 0.048500
0.099616 0.346663 0.048500
0.119455 0.346663 0.048500
0.140320 0.346663 0.048500
0.162042 0.346663 0.048500
0.184504 0.346663 0.048500
0.207619 0.346663 0.048500
0.231320 0.346663 0.048500
0.255555 0.346663 0.048500
0.280280 0.346663 0.048500
0.305460 0.346663 0.048500
0.331063 0.346663 0.048500
0.357063 0.346663 0.048500
0.383438 0.346663 0.048500
0.410167 0.346663 0.048500
0.437232 0.346663 0.048500
0.464618 0.346663 0.048500
0.492310 0.346663 0.048500
0.520295 0.346663 0.048500
0.548562 0.346663 0.048500
0.577099 0.346663 0.048500
0.605897 0.346663 0.048500
0.634946 0.346663 0.048500
0.664239 0.346663 0.048500
0.693766 0.346663 0.048500
0.723522 0.346663 0.048500
0.753500 0.346663 0.048500
0.783692 0.346663 0.048500
0.814093 0.346663 0.048500
0.844697 0.346663 0.048500
0.875500 0.346663 0.048500
0.051500 0.372270 0.048500
0.064375 0.372270 0.048500
0.081079 0.372270 0.048500
0.099616 0.372270 0.048500
0.119455 0.372270 0.048500
0.140320 0.372270 0.048500
0.162042 0.372270 0.048500
0.184504 0.372270 0.048500
0.207619 0.372270 0.048500
0.231320 0.372270 0.048500
0.255555 0.372270 0.048500
0.280280 0.372270 0.048500
0.305460 0.372270 0.048500
0.331063 0.372270 0.048500
0.357063 0.372270 0.048500
0.383438 0.372270 0.048500
0.410167 0.372270 0.048500
0.437232 0.372270 0.048500
0.464618 0.372270 0.048500
0.492310 0.372270 0.048500
0.520295 0.372270 0.048500
0.548562 0.372270 0.048500
0.577099 0.372270 0.048500
0.605897 0.372270 0.048500
0.634946 0.372270 0.048500
0.664239 0.372270 0.048500
0.693766 0.372270 0.048500
0.723522 0.372270 0.048500
0.753500 0.372270 0.048500
0.783692 0.372270 0.048500
0.814093 0.372270 0.048500
0.844697 0.372270 0.048500
0.875500 0.372270 0.048500
0.051500 0.398220 0.048500
0.064375 0.398220 0.048500
0.081079 0.398220 0.048500
0.099616 0.398220 0.048500
0.119455 0.398220 0.048500
0.140320 0.398220 0.048500
0.162042 0.398220 0.048500
0.184504 0.398220 0.048500
0.207619 0.398220 0.048500
0.231320 0.398220 0.048500
0.255555 0.398220 0.048500
0.280280 0.398220 0.048500
0.305460 0.398220 0.048500
0.331063 0.398220 0.048500
0.357063 0.398220 0.048500
0.383438 0.398220 0.048500
0.410167 0.398220 0.048500
0.437232 0.398220 0.048500
0.464618 0.398220 0.048500
0.492310 0.398220 0.048500
0.520295 0.398220 0.048500
0.548562 0.398220 0.048500
0.577099 0.398220 0.048500
0.605897 0.398220 0.048500
0.634946 0.398220 0.048500
0.664239 0.398220 0.048500
0.693766 0.398220 0.048500
0.723522 0.398220 0.048500
0.753500 0.398220 0.048500
0.783692 0.398220 0.048500
0.814093 0.398220 0.048500
0.844697 0.398220 0.048500
0.875500 0.398220 0.048500
0.051500 0.424497 0.048500
0.064375 0.424497 0.048500
0.081079 0.424497 0.048500
0.099616 0.424497 0.048500
0.119455 0.424497 0.048500
0.140320 0.424497 0.048500
0.162042 0.424497 0.048500
0.184504 0.424497 0.048500
0.207619 0.424497 0.048500
0.231320 0.424497 0.048500
0.255555 0.424497 0.048500
0.280280 0.424497 0.048500
0.305460 0.424497 0.048500
0.331063 0.424497 0.048500
0.357063 0.424497 0.048500
0.383438 0.424497 0.048500
0.410167 0.424497 0.048500
0.437232 0.424497 0.048500
0.464618 0.424497 0.048500
0.492310 0.424497 0.048500
0.520295 0.424497 0.048500
0.548562 0.424497 0.048500
0.577099 0.424497 0.048500
0.605897 0.424497 0.048500
0.634946 0.424497 0.048500
0.664239 0.424497 0.048500
0.693766 0.424497 0.048500
0.723522 0.424497 0.048500
0.753500 0.424497 0.048500
0.783692 0.424497 0.048500
0.814093 0.424497 0.048500
0.844697 0.424497 0.048500
0.875500 0.424497 0.048500
0.051500 0.451086 0.048500
0.064375 0.451086 0.048500
0.081079 0.451086 0.048500
0.099616 0.451086 0.048500
0.119455 0.451086 0.048500
0.140320 0.451086 0.048500
0.162042 0.451086 0.048500
0.184504 0.451086 0.048500
0.207619 0.451086 0.048500
0.231320 0.451086 0.048500
0.255555 0.451086 0.048500
0.280280 0.451086 0.048500
0.305460 0.451086 0.048500
0.331063 0.451086 0.048500
0.357063 0.451086 0.048500
0.383438 0.451086 0.048500
0.410167 0.451086 0.048500
0.437232 0.451086 0.048500
0.464618 0.451086 0.048500
0.492310 0.451086 0.048500
0.520295 0.451086 0.048500
0.548562 0.451086 0.048500
0.577099 0.451086 0.048500
0.605897 0.451086 0.048500
0.634946 0.451086 0.048500
0.664239 0.451086 0.048500
0.693766 0.451086 0.048500
0.723522 0.451086 0.048500
0.753500 0.451086 0.048500
0.783692 0.451086 0.048500
0.814093 0.451086 0.048500
0.844697 0.451086 0.048500
0.875500 0.451086 0.048500
0.051500 0.477971 0.048500
0.064375 0.477971 0.048500
0.081079 0.477971 0.048500
0.099616 0.477971 0.048500
0.119455 0.477971 0.048500
0.140320 0.477971 0.048500
0.162042 0.477971 0.048500
0.184504 0.477971 0.048500
0.207619 0.477971 0.048500
0.231320 0.477971 0.048500
0.255555 0.477971 0.048500
0.280280 0.477971 0.048500
0.305460 0.477971 0.048500
0.331063 0.477971 0.048500
0.357063 0.477971 0.048500
0.383438 0.477971 0.048500
0.410167 0.477971 0.048500
0.437232 0.477971 0.048500
0.464618 0.477971 0.048500
0.492310 0.477971 0.048500
0.520295 0.477971 0.048500
0.548562 0.477971 0.048500
0.577099 0.477971 0.048500
0.605897 0.477971 0.048500
0.634946 0.477971 0.048500
0.664239 0.477971 0.048500
0.693766 0.477971 0.048500
0.723522 0.477971 0.048500
0.753500 0.477971 0.048500
0.783692 0.477971 0.048500
0.814093 0.477971 0.048500
0.844697 0.477971 0.048500
0.875500 0.477971 0.048500
0.051500 0.505141 0.048500
0.064375 0.505141 0.048500
0.081079 0.505141 0.048500
0.099616 0.505141 0.048500
0.119455 0.505141 0.048500
0.140320 0.505141 0.048500
0.162042 0.505141 0.048500
0.184504 0.505141 0.048500
0.207619 0.505141 0.048500
0.231320 0.505141 0.048500
0.255555 0.505141 0.048500
0.280280 0.505141 0.048500
0.305460 0.505141 0.048500
0.331063 0.505141 0.048500
0.357063 0.505141 0.048500
0.383438 0.505141 0.048500
0.410167 0.505141 0.048500
0.437232 0.505141 0.048500
0.464618 0.505141 0.048500
0.492310 0.505141 0.048500
0.520295 0.505141 0.048500
0.548562 0.505141 0.048500
0.577099 0.505141 0.048500
0.605897 0.505141 0.048500
0.634946 0.505141 0.048500
0.664239 0.505141 0.048500
0.693766 0.505141 0.048500
0.723522 0.505141 0.048500
0.753500 0.505141 0.048500
0.783692 0.505141 0.048500
0.814093 0.505141 0.048500
0.844697 0.505141 0.048500
0.875500 0.505141 0.048500
0.051500 0.532584 0.048500
0.064375 0.532584 0.048500
0.081079 0.532584 0.048500
0.099616 0.532584 0.048500
0.119455 0.532584 0.048500
0.140320 0.532584 0.048500
0.162042 0.532584 0.048500
0.184504 0.532584 0.048500
0.207619 0.532584 0.048500
0.231320 0.532584 0.048500
0.255555 0.532584 0.048500
0.280280 0.532584 0.048500
0.305460 0.532584 0.048500
0.331063 0.532584 0.048500
0.357063 0.532584 0.048500
0.383438 0.532584 0.048500
0.410167 0.532584 0.048500
0.437232 0.532584 0.048500
0.464618 0.532584 0.048500
0.492310 0.532584 0.048500
0.520295 0.532584 0.048500
0.548562 0.532584 0.048500
0.577099 0.532584 0.048500
0.605897 0.532584 0.048500
0.634946 0.532584 0.048500
0.664239 0.532584 0.048500
0.693766 0.532584 0.048500
0.723522 0.532584 0.048500
0.753500 0.532584 0.048500
0.783692 0.532584 0.048500
0.814093 0.532584 0.048500
0.844697 0.532584 0.048500
0.875500 0.532584 0.048500
0.051500 0.560290 0.048500
0.064375 0.560290 0.048500
0.081079 0.560290 0.048500
0.099616 0.560290 0.048500
0.119455 0.560290 0.048500
0.140320 0.560290 0.048500
0.162042 0.560290 0.048500
0.184504 0.560290 0.048500
0.207619 0.560290 0.048500
0.231320 0.560290 0.048500
0.255555 0.560290 0.048500
0.280280 0.560290 0.048500
0.305460 0.560290 0.048500
0.331063 0.560290 0.048500
0.357063 0.560290 0.048500
0.383438 0.560290 0.048500
0.410167 0.560290 0.048500
0.437232 0.560290 0.048500
0.464618 0.560290 0.048500
0.492310 0.560290 0.048500
0.520295 0.560290 0.048500
0.548562 0.560290 0.048500
0.577099 0.560290 0.048500
0.605897 0.560290 0.048500
0.634946 0.560290 0.048500
0.664239 0.560290 0.048500
0.693766 0.560290 0.048500
0.723522 0.560290 0.048500
0.753500 0.560290 0.048500
0.783692 0.560290 0.048500
0.814093 0.560290 0.048500
0.844697 0.560290 0.048500
0.875500 0.560290 0.048500
0.051500 0.588249 0.048500
0.064375 0.588249 0.048500
0.081079 0.588249 0.048500
0.099616 0.588249 0.048500
0.119455 0.588249 0.048500
0.140320 0.588249 0.048500
0.162042 0.588249 0.048500
0.184504 0.588249 0.048500
0.207619 0.588249 0.048500
0.231320 0.588249 0.048500
0.255555 0.588249 0.048500
0.280280 0.588249 0.048500
0.305460 0.588249 0.048500
0.331063 0.588249 0.048500
0.357063 0.588249 0.048500
0.383438 0.588249 0.048500
0.410167 0.588249 0.048500
0.437232 0.588249 0.048500
0.464618 0.588249 0.048500
0.492310 0.588249 0.048500
0.520295 0.588249 0.048500
0.548562 0.588249 0.048500
0.577099 0.588249 0.048500
0.605897 0.588249 0.048500
0.634946 0.588249 0.048500
0.664239 0.588249 0.048500
0.693766 0.588249 0.048500
0.723522 0.588249 0.048500
0.753500 0.588249 0.048500
0.783692 0.588249 0.048500
0.814093 0.588249 0.048500
0.844697 0.588249 0.048500
0.875500 0.588249 0.048500
0.051500 0.616453 0.048500
0.064375 0.616453 0.048500
0.081079 0.616453 0.048500
0.099616 0.616453 0.048500
0.119455 0.616453 0.048500
0.140320 0.616453 0.048500
0.162042 0.616453 0.048500
0.184504 0.616453 0.048500
0.207619 0.616453 0.048500
0.231320 0.616453 0.048500
0.255555 0.616453 0.048500
0.280280 0.616453 0.048500
0.305460 0.616453 0.048500
0.331063 0.616453 0.048500
0.357063 0.616453 0.048500
0.383438 0.616453 0.048500
0.410167 0.616453 0.048500
0.437232 0.616453 0.048500
0.464618 0.616453 0.048500
0.492310 0.616453 0.048500
0.520295 0.616453 0.048500
0.548562 0.616453 0.048500
0.577099 0.616453 0.048500
0.605897 0.616453 0.048500
0.634946 0.616453 0.048500
0.664239 0.616453 0.048500
0.693766 0.616453 0.048500
0.723522 0.616453 0.048500
0.753500 0.616453 0.048500
0.783692 0.616453 0.048500
0.814093 0.616453 0.048500
0.844697 0.616453 0.048500
0.875500 0.616453 0.048500
0.051500 0.644892 0.048500
0.064375 0.644892 0.048500
0.081079 0.644892 0.048500
0.099616 0.644892 0.048500
0.119455 0.644892 0.048500
0.140320 0.644892 0.048500
0.162042 0.644892 0.048500
0.184504 0.644892 0.048500
0.207619 0.644892 0.048500
0.231320 0.644892 0.048500
0.255555 0.644892 0.048500
0.280280 0.644892 0.048500
0.305460 0.644892 0.048500
0.331063 0.644892 0.048500
0.357063 0.644892 0.048500
0.383438 0.644892 0.048500
0.410167 0.644892 0.048500
0.437232 0.644892 0.048500
0.464618 0.644892 0.048500
0.492310 0.644892 0.048500
0.520295 0.644892 0.048500
0.548562 0.644892 0.048500
0.577099 0.644892 0.048500
0.605897 0.644892 0.048500
0.634946 0.644892 0.048500
0.664239 0.644892 0.048500
0.693766 0.644892 0.048500
0.723522 0.644892 0.048500
0.753500 0.644892 0.048500
0.783692 0.644892 0.048500
0.814093 0.644892 0.048500
0.844697 0.644892 0.048500
0.875500 0.644892 0.048500
0.051500 0.673560 0.048500
0.064375 0.673560 0.048500
0.081079 0.673560 0.048500
0.099616 0.673560 0.048500
0.119455 0.673560 0.048500
0.140320 0.673560 0.048500
0.162042 0.673560 0.048500
0.184504 0.673560 0.048500
0.207619 0.673560 0.048500
0.231320 0.673560 0.048500
0.255555 0.673560 0.048500
0.280280 0.673560 0.048500
0.305460 0.673560 0.048500
0.331063 0.673560 0.048500
0.357063 0.673560 0.048500
0.383438 0.673560 0.048500
0.410167 0.673560 0.048500
0.437232 0.673560 0.048500
0.464618 0.673560 0.048500
0.492310 0.673560 0.048500
0.520295 0.673560 0.048500
0.548562 0.673560 0.048500
0.577099 0.673560 0.048500
0.605897 0.673560 0.048500
0.634946 0.673560 0.048500
0.664239 0.673560 0.048500
0.693766 0.673560 0.048500
0.723522 0.673560 0.048500
0.753500 0.673560 0.048500
