evals/fixtures/luts/portra_like.cube
TITLE "synthetic film"
LUT_3D_SIZE 9
0.051500 0.050000 0.048500
0.119455 0.050000 0.048500
0.207619 0.050000 0.048500
0.305460 0.050000 0.048500
0.410167 0.050000 0.048500
0.520295 0.050000 0.048500
0.634946 0.050000 0.048500
0.753500 0.050000 0.048500
0.875500 0.050000 0.048500
0.051500 0.115975 0.048500
0.119455 0.115975 0.048500
0.207619 0.115975 0.048500
0.305460 0.115975 0.048500
0.410167 0.115975 0.048500
0.520295 0.115975 0.048500
0.634946 0.115975 0.048500
0.753500 0.115975 0.048500
0.875500 0.115975 0.048500
0.051500 0.201572 0.048500
0.119455 0.201572 0.048500
0.207619 0.201572 0.048500
0.305460 0.201572 0.048500
0.410167 0.201572 0.048500
0.520295 0.201572 0.048500
0.634946 0.201572 0.048500
0.753500 0.201572 0.048500
0.875500 0.201572 0.048500
0.051500 0.296563 0.048500
0.119455 0.296563 0.048500
0.207619 0.296563 0.048500
0.305460 0.296563 0.048500
0.410167 0.296563 0.048500
0.520295 0.296563 0.048500
0.634946 0.296563 0.048500
0.753500 0.296563 0.048500
0.875500 0.296563 0.048500
0.051500 0.398220 0.048500
0.119455 0.398220 0.048500
0.207619 0.398220 0.048500
0.305460 0.398220 0.048500
0.410167 0.398220 0.048500
0.520295 0.398220 0.048500
0.634946 0.398220 0.048500
0.753500 0.398220 0.048500
0.875500 0.398220 0.048500
0.051500 0.505141 0.048500
0.119455 0.505141 0.048500
0.207619 0.505141 0.048500
0.305460 0.505141 0.048500
0.410167 0.505141 0.048500
0.520295 0.505141 0.048500
0.634946 0.505141 0.048500
0.753500 0.505141 0.048500
0.875500 0.505141 0.048500
0.051500 0.616453 0.048500
0.119455 0.616453 0.048500
0.207619 0.616453 0.048500
0.305460 0.616453 0.048500
0.410167 0.616453 0.048500
0.520295 0.616453 0.048500
0.634946 0.616453 0.048500
0.753500 0.616453 0.048500
0.875500 0.616453 0.048500
0.051500 0.731553 0.048500
0.119455 0.731553 0.048500
0.207619 0.731553 0.048500
0.305460 0.731553 0.048500
0.410167 0.731553 0.048500
0.520295 0.731553 0.048500
0.634946 0.731553 0.048500
0.753500 0.731553 0.048500
0.875500 0.731553 0.048500
0.051500 0.850000 0.048500
0.119455 0.850000 0.048500
0.207619 0.850000 0.048500
0.305460 0.850000 0.048500
0.410167 0.850000 0.048500
0.520295 0.850000 0.048500
0.634946 0.850000 0.048500
0.753500 0.850000 0.048500
0.875500 0.850000 0.048500
0.051500 0.050000 0.112496
0.119455 0.050000 0.112496
0.207619 0.050000 0.112496
0.305460 0.050000 0.112496
0.410167 0.050000 0.112496
0.520295 0.050000 0.112496
0.634946 0.050000 0.112496
0.753500 0.050000 0.112496
0.875500 0.050000 0.112496
0.051500 0.115975 0.112496
0.119455 0.115975 0.112496
0.207619 0.115975 0.112496
0.305460 0.115975 0.112496
0.410167 0.115975 0.112496
0.520295 0.115975 0.112496
0.634946 0.115975 0.112496
0.753500 0.115975 0.112496
0.875500 0.115975 0.112496
0.051500 0.201572 0.112496
0.119455 0.201572 0.112496
0.207619 0.201572 0.112496
0.305460 0.201572 0.112496
0.410167 0.201572 0.112496
0.520295 0.201572 0.112496
0.634946 0.201572 0.112496
0.753500 0.201572 0.112496
0.875500 0.201572 0.112496
0.051500 0.296563 0.112496
0.119455 0.296563 0.112496
0.207619 0.296563 0.112496
0.305460 0.296563 0.112496
0.410167 0.296563 0.112496
0.520295 0.296563 0.112496
0.634946 0.296563 0.112496
0.753500 0.296563 0.112496
0.875500 0.296563 0.112496
0.051500 0.398220 0.112496
0.119455 0.398220 0.112496
0.207619 0.398220 0.112496
0.305460 0.398220 0.112496
0.410167 0.398220 0.112496
0.520295 0.398220 0.112496
0.634946 0.398220 0.112496
0.753500 0.398220 0.112496
0.875500 0.398220 0.112496
0.051500 0.505141 0.112496
0.119455 0.505141 0.112496
0.207619 0.505141 0.112496
0.305460 0.505141 0.112496
0.410167 0.505141 0.112496
0.520295 0.505141 0.112496
0.634946 0.505141 0.112496
0.753500 0.505141 0.112496
0.875500 0.505141 0.112496
0.051500 0.616453 0.112496
0.119455 0.616453 0.112496
0.207619 0.616453 0.112496
0.305460 0.616453 0.112496
0.410167 0.616453 0.112496
0.520295 0.616453 0.112496
0.634946 0.616453 0.112496
0.753500 0.616453 0.112496
0.875500 0.616453 0.112496
0.051500 0.731553 0.112496
0.119455 0.731553 0.112496
0.207619 0.731553 0.112496
0.305460 0.731553 0.112496
0.410167 0.731553 0.112496
0.520295 0.731553 0.112496
0.634946 0.731553 0.112496
0.753500 0.731553 0.112496
0.875500 0.731553 0.112496
0.051500 0.850000 0.112496
0.119455 0.850000 0.112496
0.207619 0.850000 0.112496
0.305460 0.850000 0.112496
0.410167 0.850000 0.112496
0.520295 0.850000 0.112496
0.634946 0.850000 0.112496
0.753500 0.850000 0.112496
0.875500 0.850000 0.112496
0.051500 0.050000 0.195525
0.119455 0.050000 0.195525
0.207619 0.050000 0.195525
0.305460 0.050000 0.195525
0.410167 0.050000 0.195525
0.520295 0.050000 0.195525
0.634946 0.050000 0.195525
0.753500 0.050000 0.195525
0.875500 0.050000 0.195525
0.051500 0.115975 0.195525
0.119455 0.115975 0.195525
0.207619 0.115975 0.195525
0.305460 0.115975 0.195525
0.410167 0.115975 0.195525
0.520295 0.115975 0.195525
0.634946 0.115975 0.195525
0.753500 0.115975 0.195525
0.875500 0.115975 0.195525
0.051500 0.201572 0.195525
0.119455 0.201572 0.195525
0.207619 0.201572 0.195525
0.305460 0.201572 0.195525
0.410167 0.201572 0.195525
0.520295 0.201572 0.195525
0.634946 0.201572 0.195525
0.753500 0.201572 0.195525
0.875500 0.201572 0.195525
0.051500 0.296563 0.195525
0.119455 0.296563 0.195525
0.207619 0.296563 0.195525
0.305460 0.296563 0.195525
0.410167 0.296563 0.195525
0.520295 0.296563 0.195525
0.634946 0.296563 0.195525
0.753500 0.296563 0.195525
0.875500 0.296563 0.195525
0.051500 0.398220 0.195525
0.119455 0.398220 0.195525
0.207619 0.398220 0.195525
0.305460 0.398220 0.195525
0.410167 0.398220 0.195525
0.520295 0.398220 0.195525
0.634946 0.398220 0.195525
0.753500 0.398220 0.195525
0.875500 0.398220 0.195525
0.051500 0.505141 0.195525
0.119455 0.505141 0.195525
0.207619 0.505141 0.195525
0.305460 0.505141 0.195525
0.410167 0.505141 0.195525
0.520295 0.505141 0.195525
0.634946 0.505141 0.195525
0.753500 0.505141 0.195525
0.875500 0.505141 0.195525
0.051500 0.616453 0.195525
0.119455 0.616453 0.195525
0.207619 0.616453 0.195525
0.305460 0.616453 0.195525
0.410167 0.616453 0.195525
0.520295 0.616453 0.195525
0.634946 0.616453 0.195525
0.753500 0.616453 0.195525
0.875500 0.616453 0.195525
0.051500 0.731553 0.195525
0.119455 0.731553 0.195525
0.207619 0.731553 0.195525
0.305460 0.731553 0.195525
0.410167 0.731553 0.195525
0.520295 0.731553 0.195525
0.634946 0.731553 0.195525
0.753500 0.731553 0.195525
0.875500 0.731553 0.195525
0.051500 0.850000 0.195525
0.119455 0.850000 0.195525
0.207619 0.850000 0.195525
0.305460 0.850000 0.195525
0.410167 0.850000 0.195525
0.520295 0.850000 0.195525
0.634946 0.850000 0.195525
0.753500 0.850000 0.195525
0.875500 0.850000 0.195525
0.051500 0.050000 0.287666
0.119455 0.050000 0.287666
0.207619 0.050000 0.287666
0.305460 0.050000 0.287666
0.410167 0.050000 0.287666
0.520295 0.050000 0.287666
0.634946 0.050000 0.287666
0.753500 0.050000 0.287666
0.875500 0.050000 0.287666
0.051500 0.115975 0.287666
0.119455 0.115975 0.287666
0.207619 0.115975 0.287666
0.305460 0.115975 0.287666
0.410167 0.115975 0.287666
0.520295 0.115975 0.287666
0.634946 0.115975 0.287666
0.753500 0.115975 0.287666
0.875500 0.115975 0.287666
0.051500 0.201572 0.287666
0.119455 0.201572 0.287666
0.207619 0.201572 0.287666
0.305460 0.201572 0.287666
0.410167 0.201572 0.287666
0.520295 0.201572 0.287666
0.634946 0.201572 0.287666
0.753500 0.201572 0.287666
0.875500 0.201572 0.287666
0.051500 0.296563 0.287666
0.119455 0.296563 0.287666
0.207619 0.296563 0.287666
0.305460 0.296563 0.287666
0.410167 0.296563 0.287666
0.520295 0.296563 0.287666
0.634946 0.296563 0.287666
0.753500 0.296563 0.287666
0.875500 0.296563 0.287666
0.051500 0.398220 0.287666
0.119455 0.398220 0.287666
0.207619 0.398220 0.287666
0.305460 0.398220 0.287666
0.410167 0.398220 0.287666
0.520295 0.398220 0.287666
0.634946 0.398220 0.287666
0.753500 0.398220 0.287666
0.875500 0.398220 0.287666
0.051500 0.505141 0.287666
0.119455 0.505141 0.287666
0.207619 0.505141 0.287666
0.305460 0.505141 0.287666
0.410167 0.505141 0.287666
0.520295 0.505141 0.287666
0.634946 0.505141 0.287666
0.753500 0.505141 0.287666
0.875500 0.505141 0.287666
0.051500 0.616453 0.287666
0.119455 0.616453 0.287666
0.207619 0.616453 0.287666
0.305460 0.616453 0.287666
0.410167 0.616453 0.287666
0.520295 0.616453 0.287666
0.634946 0.616453 0.287666
0.753500 0.616453 0.287666
0.875500 0.616453 0.287666
0.051500 0.731553 0.287666
0.119455 0.731553 0.287666
0.207619 0.731553 0.287666
0.305460 0.731553 0.287666
0.410167 0.731553 0.287666
0.520295 0.731553 0.287666
0.634946 0.731553 0.287666
0.753500 0.731553 0.287666
0.875500 0.731553 0.287666
0.051500 0.850000 0.287666
0.119455 0.850000 0.287666
0.207619 0.850000 0.287666
0.305460 0.850000 0.287666
0.410167 0.850000 0.287666
0.520295 0.850000 0.287666
0.634946 0.850000 0.287666
0.753500 0.850000 0.287666
0.875500 0.850000 0.287666
0.051500 0.050000 0.386274
0.119455 0.050000 0.386274
0.207619 0.050000 0.386274
0.305460 0.050000 0.386274
0.410167 0.050000 0.386274
0.520295 0.050000 0.386274
0.634946 0.050000 0.386274
0.753500 0.050000 0.386274
0.875500 0.050000 0.386274
0.051500 0.115975 0.386274
0.119455 0.115975 0.386274
0.207619 0.115975 0.386274
0.305460 0.115975 0.386274
0.410167 0.115975 0.386274
0.520295 0.115975 0.386274
0.634946 0.115975 0.386274
0.753500 0.115975 0.386274
0.875500 0.115975 0.386274
0.051500 0.201572 0.386274
0.119455 0.201572 0.386274
0.207619 0.201572 0.386274
0.305460 0.201572 0.386274
0.410167 0.201572 0.386274
0.520295 0.201572 0.386274
0.634946 0.201572 0.386274
0.753500 0.201572 0.386274
0.875500 0.201572 0.386274
0.051500 0.296563 0.386274
0.119455 0.296563 0.386274
0.207619 0.296563 0.386274
0.305460 0.296563 0.386274
0.410167 0.296563 0.386274
0.520295 0.296563 0.386274
0.634946 0.296563 0.386274
0.753500 0.296563 0.386274
0.875500 0.296563 0.386274
0.051500 0.398220 0.386274
0.119455 0.398220 0.386274
0.207619 0.398220 0.386274
0.305460 0.398220 0.386274
0.410167 0.398220 0.386274
0.520295 0.398220 0.386274
0.634946 0.398220 0.386274
0.753500 0.398220 0.386274
0.875500 0.398220 0.386274
0.051500 0.505141 0.386274
0.119455 0.505141 0.386274
0.207619 0.505141 0.386274
0.305460 0.505141 0.386274
0.410167 0.505141 0.386274
0.520295 0.505141 0.386274
0.634946 0.505141 0.386274
0.753500 0.505141 0.386274
0.875500 0.505141 0.386274
0.051500 0.616453 0.386274
0.119455 0.616453 0.386274
0.207619 0.616453 0.386274
0.305460 0.616453 0.386274
0.410167 0.616453 0.386274
0.520295 0.616453 0.386274
0.634946 0.616453 0.386274
0.753500 0.616453 0.386274
0.875500 0.616453 0.386274
0.051500 0.731553 0.386274
0.119455 0.731553 0.386274
0.207619 0.731553 0.386274
0.305460 0.731553 0.386274
0.410167 0.731553 0.386274
0.520295 0.731553 0.386274
0.634946 0.731553 0.386274
0.753500 0.731553 0.386274
0.875500 0.731553 0.386274
0.051500 0.850000 0.386274
0.119455 0.850000 0.386274
0.207619 0.850000 0.386274
0.305460 0.850000 0.386274
0.410167 0.850000 0.386274
0.520295 0.850000 0.386274
0.634946 0.850000 0.386274
0.753500 0.850000 0.386274
0.875500 0.850000 0.386274
0.051500 0.050000 0.489987
0.119455 0.050000 0.489987
0.207619 0.050000 0.489987
0.305460 0.050000 0.489987
0.410167 0.050000 0.489987
0.520295 0.050000 0.489987
0.634946 0.050000 0.489987
0.753500 0.050000 0.489987
0.875500 0.050000 0.489987
0.051500 0.115975 0.489987
0.119455 0.115975 0.489987
0.207619 0.115975 0.489987
0.305460 0.115975 0.489987
0.410167 0.115975 0.489987
0.520295 0.115975 0.489987
0.634946 0.115975 0.489987
0.753500 0.115975 0.489987
0.875500 0.115975 0.489987
0.051500 0.201572 0.489987
0.119455 0.201572 0.489987
0.207619 0.201572 0.489987
0.305460 0.201572 0.489987
0.410167 0.201572 0.489987
0.520295 0.201572 0.489987
0.634946 0.201572 0.489987
0.753500 0.201572 0.489987
0.875500 0.201572 0.489987
0.051500 0.296563 0.489987
0.119455 0.296563 0.489987
0.207619 0.296563 0.489987
0.305460 0.296563 0.489987
0.410167 0.296563 0.489987
0.520295 0.296563 0.489987
0.634946 0.296563 0.489987
0.753500 0.296563 0.489987
0.875500 0.296563 0.489987
0.051500 0.398220 0.489987
0.119455 0.398220 0.489987
0.207619 0.398220 0.489987
0.305460 0.398220 0.489987
0.410167 0.398220 0.489987
0.520295 0.398220 0.489987
0.634946 0.398220 0.489987
0.753500 0.398220 0.489987
0.875500 0.398220 0.489987
0.051500 0.505141 0.489987
0.119455 0.505141 0.489987
0.207619 0.505141 0.489987
0.305460 0.505141 0.489987
0.410167 0.505141 0.489987
0.520295 0.505141 0.489987
0.634946 0.505141 0.489987
0.753500 0.505141 0.489987
0.875500 0.505141 0.489987
0.051500 0.616453 0.489987
0.119455 0.616453 0.489987
0.207619 0.616453 0.489987
0.305460 0.616453 0.489987
0.410167 0.616453 0.489987
0.520295 0.616453 0.489987
0.634946 0.616453 0.489987
0.753500 0.616453 0.489987
0.875500 0.616453 0.489987
0.051500 0.731553 0.489987
0.119455 0.731553 0.489987
0.207619 0.731553 0.489987
0.305460 0.731553 0.489987
0.410167 0.731553 0.489987
0.520295 0.731553 0.489987
0.634946 0.731553 0.489987
0.753500 0.731553 0.489987
0.875500 0.731553 0.489987
0.051500 0.850000 0.489987
0.119455 0.850000 0.489987
0.207619 0.850000 0.489987
0.305460 0.850000 0.489987
0.410167 0.850000 0.489987
0.520295 0.850000 0.489987
0.634946 0.850000 0.489987
0.753500 0.850000 0.489987
0.875500 0.850000 0.489987
0.051500 0.050000 0.597959
0.119455 0.050000 0.597959
0.207619 0.050000 0.597959
0.305460 0.050000 0.597959
0.410167 0.050000 0.597959
0.520295 0.050000 0.597959
0.634946 0.050000 0.597959
0.753500 0.050000 0.597959
0.875500 0.050000 0.597959
0.051500 0.115975 0.597959
0.119455 0.115975 0.597959
0.207619 0.115975 0.597959
0.305460 0.115975 0.597959
0.410167 0.115975 0.597959
0.520295 0.115975 0.597959
0.634946 0.115975 0.597959
0.753500 0.115975 0.597959
0.875500 0.115975 0.597959
0.051500 0.201572 0.597959
0.119455 0.201572 0.597959
0.207619 0.201572 0.597959
0.305460 0.201572 0.597959
0.410167 0.201572 0.597959
0.520295 0.201572 0.597959
0.634946 0.201572 0.597959
0.753500 0.201572 0.597959
0.875500 0.201572 0.597959
0.051500 0.296563 0.597959
0.119455 0.296563 0.597959
0.207619 0.296563 0.597959
0.305460 0.296563 0.597959
0.410167 0.296563 0.597959
0.520295 0.296563 0.597959
0.634946 0.296563 0.597959
0.753500 0.296563 0.597959
0.875500 0.296563 0.597959
0.051500 0.398220 0.597959
0.119455 0.398220 0.597959
0.207619 0.398220 0.597959
0.305460 0.398220 0.597959
0.410167 0.398220 0.597959
0.520295 0.398220 0.597959
0.634946 0.398220 0.597959
0.753500 0.398220 0.597959
0.875500 0.398220 0.597959
0.051500 0.505141 0.597959
0.119455 0.505141 0.597959
0.207619 0.505141 0.597959
0.305460 0.505141 0.597959
0.410167 0.505141 0.597959
0.520295 0.505141 0.597959
0.634946 0.505141 0.597959
0.753500 0.505141 0.597959
0.875500 0.505141 0.597959
0.051500 0.616453 0.597959
0.119455 0.616453 0.597959
0.207619 0.616453 0.597959
0.305460 0.616453 0.597959
0.410167 0.616453 0.597959
0.520295 0.616453 0.597959
0.634946 0.616453 0.597959
0.753500 0.616453 0.597959
0.875500 0.616453 0.597959
0.051500 0.731553 0.597959
0.119455 0.731553 0.597959
0.207619 0.731553 0.597959
0.305460 0.731553 0.597959
0.410167 0.731553 0.597959
0.520295 0.731553 0.597959
0.634946 0.731553 0.597959
0.753500 0.731553 0.597959
0.875500 0.731553 0.597959
0.051500 0.850000 0.597959
0.119455 0.850000 0.597959
0.207619 0.850000 0.597959
0.305460 0.850000 0.597959
0.410167 0.850000 0.597959
0.520295 0.850000 0.597959
0.634946 0.850000 0.597959
0.753500 0.850000 0.597959
0.875500 0.850000 0.597959
0.051500 0.050000 0.709606
0.119455 0.050000 0.709606
0.207619 0.050000 0.709606
0.305460 0.050000 0.709606
0.410167 0.050000 0.709606
0.520295 0.050000 0.709606
0.634946 0.050000 0.709606
0.753500 0.050000 0.709606
0.875500 0.050000 0.709606
0.051500 0.115975 0.709606
0.119455 0.115975 0.709606
0.207619 0.115975 0.709606
0.305460 0.115975 0.709606
0.410167 0.115975 0.709606
0.520295 0.115975 0.709606
0.634946 0.115975 0.709606
0.753500 0.115975 0.709606
0.875500 0.115975 0.709606
0.051500 0.201572 0.709606
0.119455 0.201572 0.709606
0.207619 0.201572 0.709606
0.305460 0.201572 0.709606
0.410167 0.201572 0.709606
0.520295 0.201572 0.709606
0.634946 0.201572 0.709606
0.753500 0.201572 0.709606
0.875500 0.201572 0.709606
0.051500 0.296563 0.709606
0.119455 0.296563 0.709606
0.207619 0.296563 0.709606
0.305460 0.296563 0.709606
0.410167 0.296563 0.709606
0.520295 0.296563 0.709606
0.634946 0.296563 0.709606
0.753500 0.296563 0.709606
0.875500 0.296563 0.709606
0.051500 0.398220 0.709606
0.119455 0.398220 0.709606
0.207619 0.398220 0.709606
0.305460 0.398220 0.709606
0.410167 0.398220 0.709606
0.520295 0.398220 0.709606
0.634946 0.398220 0.709606
0.753500 0.398220 0.709606
0.875500 0.398220 0.709606
0.051500 0.505141 0.709606
0.119455 0.505141 0.709606
0.207619 0.505141 0.709606
0.305460 0.505141 0.709606
0.410167 0.505141 0.709606
0.520295 0.505141 0.709606
0.634946 0.505141 0.709606
0.753500 0.505141 0.709606
0.875500 0.505141 0.709606
0.051500 0.616453 0.709606
0.119455 0.616453 0.709606
0.207619 0.616453 0.709606
0.305460 0.616453 0.709606
0.410167 0.616453 0.709606
0.520295 0.616453 0.709606
0.634946 0.616453 0.709606
0.753500 0.616453 0.709606
0.875500 0.616453 0.709606
0.051500 0.731553 0.709606
0.119455 0.731553 0.709606
0.207619 0.731553 0.709606
0.305460 0.731553 0.709606
0.410167 0.731553 0.709606
0.520295 0.731553 0.709606
0.634946 0.731553 0.709606
0.753500 0.731553 0.709606
0.875500 0.731553 0.709606
0.051500 0.850000 0.709606
0.119455 0.850000 0.709606
0.207619 0.850000 0.709606
0.305460 0.850000 0.709606
0.410167 0.850000 0.709606
0.520295 0.850000 0.709606
0.634946 0.850000 0.709606
0.753500 0.850000 0.709606
0.875500 0.850000 0.709606
0.051500 0.050000 0.824500
0.119455 0.050000 0.824500
0.207619 0.050000 0.824500
0.305460 0.050000 0.824500
0.410167 0.050000 0.824500
0.520295 0.050000 0.824500
0.634946 0.050000 0.824500
0.753500 0.050000 0.824500
0.875500 0.050000 0.824500
0.051500 0.115975 0.824500
0.119455 0.115975 0.824500
0.207619 0.115975 0.824500
0.305460 0.115975 0.824500
0.410167 0.115975 0.824500
0.520295 0.115975 0.824500
0.634946 0.115975 0.824500
0.753500 0.115975 0.824500
0.875500 0.115975 0.824500
0.051500 0.201572 0.824500
0.119455 0.201572 0.824500
0.207619 0.201572 0.824500
0.305460 0.201572 0.824500
0.410167 0.201572 0.824500
0.520295 0.201572 0.824500
0.634946 0.201572 0.824500
0.753500 0.201572 0.824500
0.875500 0.201572 0.824500
0.051500 0.296563 0.824500
0.119455 0.296563 0.824500
0.207619 0.296563 0.824500
0.305460 0.296563 0.824500
0.410167 0.296563 0.824500
0.520295 0.296563 0.824500
0.634946 0.296563 0.824500
0.753500 0.296563 0.824500
0.875500 0.296563 0.824500
0.051500 0.398220 0.824500
0.119455 0.398220 0.824500
0.207619 0.398220 0.824500
0.305460 0.398220 0.824500
0.410167 0.398220 0.824500
0.520295 0.398220 0.824500
0.634946 0.398220 0.824500
0.753500 0.398220 0.824500
0.875500 0.398220 0.824500
0.051500 0.505141 0.824500
0.119455 0.505141 0.824500
0.207619 0.505141 0.824500
0.305460 0.505141 0.824500
0.410167 0.505141 0.824500
0.520295 0.505141 0.824500
0.634946 0.505141 0.824500
0.753500 0.505141 0.824500
0.875500 0.505141 0.824500
0.051500 0.616453 0.824500
0.119455 0.616453 0.824500
0.207619 0.616453 0.824500
0.305460 0.616453 0.824500
0.410167 0.616453 0.824500
0.520295 0.616453 0.824500
0.634946 0.616453 0.824500
0.753500 0.616453 0.824500
0.875500 0.616453 0.824500
0.051500 0.731553 0.824500
0.119455 0.731553 0.824500
0.207619 0.731553 0.824500
0.305460 0.731553 0.824500
0.410167 0.731553 0.824500
0.520295 0.731553 0.824500
0.634946 0.731553 0.824500
0.753500 0.731553 0.824500
0.875500 0.731553 0.824500
0.051500 0.850000 0.824500
0.119455 0.850000 0.824500
0.207619 0.850000 0.824500
0.305460 0.850000 0.824500
0.410167 0.850000 0.824500
0.520295 0.850000 0.824500
0.634946 0.850000 0.824500
0.753500 0.850000 0.824500
0.875500 0.850000 0.824500
